src/icons/solid/users/login.svg

<svg width="24" height="24" viewBox="0 0 24 24" fill="none" xmlns="http://www.w3.org/2000/svg">
<g clip-path="url(#clip0_92_752)">
<path d="M14.1846 2C15.3475 2.05805 16.2226 2.99301 16.1729 4.08203V9.83594H13.2296C13.4482 9.48904 13.5674 9.10379 13.5674 8.68945C13.5674 8.11116 13.3297 7.5707 12.9122 7.15625C12.4947 6.74183 11.9276 6.52053 11.3311 6.52051C10.7347 6.52052 10.1775 6.75146 9.75006 7.15625L6.33014 10.4727C6.12164 10.6749 5.95309 10.9158 5.84381 11.1758C5.73447 11.4457 5.67487 11.7255 5.67487 12.0146C5.67489 12.3037 5.73449 12.5836 5.84381 12.8438C5.95312 13.1133 6.12164 13.3447 6.33014 13.5469L9.7403 16.8525C10.1578 17.267 10.7249 17.4892 11.3214 17.4893C11.9177 17.4892 12.474 17.2573 12.9014 16.8525C13.3289 16.4477 13.5577 15.8986 13.5577 15.3203C13.5576 14.906 13.4384 14.5111 13.2198 14.1738H16.1622V19.957C16.2116 21.0075 15.3372 21.9422 14.2139 22H2.9903C1.82722 21.9421 0.952313 21.0071 1.00202 19.918V4.04297C0.952562 2.99265 1.82722 2.05801 2.95026 2H14.1846Z" fill="#1D1B20"/>
<path d="M10.794 8.17871C11.0823 7.8992 11.5594 7.89922 11.8477 8.17871C12.1358 8.45825 12.1359 8.92076 11.8477 9.2002L9.70026 11.2822H22.2559C22.6635 11.2822 23.002 11.6097 23.002 12.0049C23.002 12.4 22.6635 12.7275 22.2559 12.7275H9.70026L11.8477 14.8096C12.1359 15.089 12.1358 15.5515 11.8477 15.8311C11.6986 15.9756 11.5092 16.043 11.3204 16.043C11.1316 16.0429 10.943 15.9755 10.794 15.8311L7.37409 12.5156C7.30452 12.4482 7.25467 12.3709 7.21491 12.2842C7.17521 12.1975 7.15534 12.1012 7.15534 12.0049C7.15534 11.9086 7.17523 11.8123 7.21491 11.7256C7.24472 11.6389 7.30453 11.5616 7.37409 11.4941L10.794 8.17871Z" fill="#1D1B20"/>
</g>
<defs>
<clipPath id="clip0_92_752">
<rect width="24" height="24" fill="white"/>
</clipPath>
</defs>
</svg>

<svg xmlns="http://www.w3.org/2000/svg" width="24" height="24" fill="none" viewBox="0 0 24 24"><g fill="currentColor" clip-path="url(#a)"><path d="M14.185 2c1.162.058 2.038.993 1.988 2.082v5.754H13.23a2.13 2.13 0 0 0 .337-1.147 2.15 2.15 0 0 0-.655-1.533 2.23 2.23 0 0 0-1.58-.635 2.3 2.3 0 0 0-1.582.635l-3.42 3.317a2.2 2.2 0 0 0-.486.703 2.14 2.14 0 0 0 0 1.668c.11.27.278.5.486.703l3.41 3.305a2.23 2.23 0 0 0 1.581.637c.597 0 1.153-.232 1.58-.637a2.1 2.1 0 0 0 .657-1.532c0-.414-.12-.809-.338-1.146h2.942v5.783c.05 1.05-.825 1.985-1.948 2.043H2.99c-1.163-.058-2.038-.993-1.988-2.082V4.043C.952 2.993 1.827 2.058 2.95 2z"/><path d="M10.794 8.179a.767.767 0 0 1 1.054 0 .71.71 0 0 1 0 1.021L9.7 11.282h12.556c.407 0 .746.328.746.723s-.338.722-.746.722H9.7l2.148 2.083a.71.71 0 0 1 0 1.021.75.75 0 0 1-.528.212.75.75 0 0 1-.526-.212l-3.42-3.315a.8.8 0 0 1-.16-.232.67.67 0 0 1 0-.558.6.6 0 0 1 .16-.232z"/></g><defs><clipPath id="a"><path fill="currentColor" d="M0 0h24v24H0z"/></clipPath></defs></svg>
